X:15225
T:Settee,The. JB.13
M:6/8
L:1/8
Q:90
S:James Biggins MS, Leeds, 1779.
R:Misc.
O:England
A:Yorkshire
N:Also has bass part and instructions for dance.
Z:vmp.Nick Barber & Chris Partington
K:F
F3c3|AcA FGA|B3d3|BdB GAB|A3c3|!
faf def|ege cde|fed cdB|B3A3:|!
|:c3g3|ege cde|f3a3|faf def| g3b3|agf edc|!
BdB GAB|AcA FGA|Gba gfe|{e}f4:|]
